CCSG.ti3
CTI3   

DESCRIPTOR "Argyll Calibration Target chart information 3"
ORIGINATOR "X-Rite ColorChecker SG November 2014 and newer"
CREATED "Thu Oct 29 18:41:35 2015"
DEVICE_CLASS "INPUT"
COLOR_REP "RGB_XYZ"
SPECTRAL_BANDS "36"
SPECTRAL_START_NM "380.000000"
SPECTRAL_END_NM "730.000000"
ILLUMINANT_WHITE_POINT_XYZ "0.963723 1.000000 0.869721"

NUMBER_OF_FIELDS 49
BEGIN_DATA_FORMAT
SAMPLE_ID RGB_R RGB_G RGB_B XYZ_X XYZ_Y XYZ_Z SPEC_380 SPEC_390 SPEC_400 SPEC_410 SPEC_420 SPEC_430 SPEC_440 SPEC_450 SPEC_460 SPEC_470 SPEC_480 SPEC_490 SPEC_500 SPEC_510 SPEC_520 SPEC_530 SPEC_540 SPEC_550 SPEC_560 SPEC_570 SPEC_580 SPEC_590 SPEC_600 SPEC_610 SPEC_620 SPEC_630 SPEC_640 SPEC_650 SPEC_660 SPEC_670 SPEC_680 SPEC_690 SPEC_700 SPEC_710 SPEC_720 SPEC_730 LAB_L LAB_A LAB_B Illuminants\SoraaPlusVitaLAB_L Illuminants\SoraaPlusVitaLAB_A Illuminants\SoraaPlusVitaLAB_B 
END_DATA_FORMAT

NUMBER_OF_SETS 140
BEGIN_DATA
A01 0.00000 0.00000 0.00000 87.33090 90.90355 73.03356 11.92310 19.32540 38.69310 65.71390 83.25690 87.60010 88.54930 89.16100 89.60410 89.89390 90.03160 90.32530 90.52000 90.65250 90.93410 90.97870 91.05280 91.08090 90.87640 91.09070 91.00180 91.00980 90.91070 90.99020 90.93850 90.82380 90.90840 91.05200 91.11620 90.93720 90.92870 90.83620 90.89150 90.97340 90.81700 90.82610 96.37031 -0.587503 1.697021 96.36885 -0.562635 1.575133 
A02 0.00000 0.00000 0.00000 0.960760 0.990638 0.885738 1.528700 1.176600 1.224600 1.113600 1.166900 1.108400 1.114000 1.086300 1.057600 1.041200 1.034200 1.027300 1.023200 1.002800 1.007100 0.987400 0.999000 0.977700 0.990000 0.979600 0.984300 0.972300 0.987800 0.977400 0.983700 0.976400 0.979600 0.986300 0.985900 1.008300 0.956700 0.998900 0.966800 0.970200 1.051500 0.945300 8.913209 0.208864 -1.169051 8.915224 0.225801 -1.168590 
A03 0.00000 0.00000 0.00000 17.44483 18.03627 14.70474 6.377900 10.38350 14.62740 16.86300 17.27980 17.59640 17.82650 18.09290 18.02010 17.90610 17.73460 17.69830 17.68970 17.76100 17.84150 17.88220 17.89510 17.95160 17.98170 18.22710 18.34540 18.43350 18.35600 18.27390 18.11680 17.95250 17.83900 17.71200 17.59840 17.43930 17.31860 17.20070 17.07090 17.00270 16.84930 16.85760 49.54008 0.293197 0.440908 49.53863 0.320334 0.453363 
A04 0.00000 0.00000 0.00000 87.21249 90.78749 72.86389 11.83660 19.36790 38.49040 65.49060 82.97310 87.32410 88.28780 88.94910 89.38850 89.73470 89.87670 90.21560 90.38950 90.55460 90.82980 90.84680 90.93220 90.96130 90.76740 90.96870 90.88000 90.88310 90.79290 90.87180 90.87220 90.75190 90.82360 90.99130 90.99080 90.87220 90.79710 90.79290 90.81010 90.87010 90.82800 90.59260 96.32247 -0.600046 1.763376 96.32098 -0.577180 1.642514 
A05 0.00000 0.00000 0.00000 0.938968 0.968620 0.864742 1.163900 1.204700 1.157200 1.153100 1.092600 1.096500 1.074500 1.057800 1.037300 1.029400 1.011300 0.996800 0.994800 0.985600 0.977300 0.978300 0.963800 0.971500 0.950700 0.970400 0.953900 0.963000 0.958900 0.958500 0.954500 0.954700 0.961700 0.958200 0.970300 0.962900 0.971400 0.961600 0.960700 0.981300 0.953200 1.001900 8.727252 0.190679 -1.138246 8.729541 0.207413 -1.138302 
A06 0.00000 0.00000 0.00000 17.47195 18.06584 14.70456 6.603900 10.28490 14.57640 16.86410 17.25340 17.56700 17.86370 18.08530 18.00620 17.89700 17.74910 17.71190 17.71430 17.77500 17.86090 17.91430 17.93970 17.97700 18.02200 18.24770 18.37770 18.46180 18.39610 18.29360 18.15770 17.99400 17.86200 17.76370 17.64080 17.50060 17.36970 17.23530 17.10650 17.02440 16.93080 16.80990 49.57587 0.285364 0.503082 49.57427 0.312188 0.512632 
A07 0.00000 0.00000 0.00000 87.18354 90.75615 72.83632 11.72860 19.33830 38.38340 65.26100 82.83050 87.29420 88.30790 88.93610 89.35180 89.69370 89.82790 90.16930 90.34390 90.52480 90.76820 90.81820 90.91470 90.93400 90.73030 90.93670 90.87830 90.84590 90.75770 90.83360 90.83300 90.72300 90.81490 90.93800 90.97900 90.85800 90.79460 90.74470 90.70580 90.80670 90.73070 90.66200 96.30955 -0.597834 1.765291 96.30813 -0.574542 1.643074 
A08 0.00000 0.00000 0.00000 0.974606 1.006143 0.907381 1.290800 1.161000 1.215500 1.181300 1.158000 1.151700 1.121600 1.125300 1.085600 1.072600 1.056600 1.052900 1.036800 1.026500 1.023900 1.022800 0.997200 1.010900 0.995800 0.999400 0.980600 0.993200 0.993000 0.993700 0.981900 0.992100 0.995700 1.003600 1.009600 1.020700 1.017900 1.032100 1.041400 1.041500 1.090500 1.050400 9.042513 0.165901 -1.302607 9.043868 0.179371 -1.297810 
A09 0.00000 0.00000 0.00000 17.46048 18.04735 14.69281 6.493200 10.19420 14.57240 16.84130 17.28720 17.52060 17.88080 18.05750 18.00980 17.86250 17.73810 17.67780 17.68700 17.74200 17.85020 17.88110 17.91290 17.95110 18.00330 18.22690 18.37470 18.44290 18.38530 18.28620 18.14450 17.98460 17.88080 17.76090 17.63880 17.48950 17.35060 17.24040 17.11870 17.02510 16.92270 16.89660 49.55349 0.319934 0.494499 49.55172 0.347036 0.504160 
A10 0.00000 0.00000 0.00000 87.15743 90.73514 72.80245 11.72650 19.36000 38.53610 65.39090 82.87140 87.24970 88.23030 88.86660 89.30760 89.66300 89.78740 90.15470 90.32280 90.51380 90.78330 90.82260 90.86810 90.90950 90.70120 90.93690 90.81240 90.84350 90.73270 90.83080 90.81410 90.69870 90.73050 90.91730 90.94630 90.83670 90.76680 90.71430 90.68780 90.83680 90.79950 90.69720 96.30088 -0.608743 1.780093 96.29917 -0.585201 1.658222 
B01 0.00000 0.00000 0.00000 17.43775 18.02520 14.68871 7.019700 10.10920 14.68480 16.80080 17.22050 17.59410 17.84750 18.05440 17.98930 17.88750 17.70540 17.68940 17.67200 17.74260 17.82570 17.85140 17.89660 17.92930 17.98110 18.20070 18.35490 18.41030 18.36270 18.25380 18.13170 17.95460 17.83150 17.72300 17.59930 17.45770 17.31520 17.18500 17.09970 17.03120 16.88320 16.84710 49.52666 0.312779 0.458691 49.52537 0.341174 0.465681 
B02 0.00000 0.00000 0.00000 13.33566 7.152860 8.782437 6.378000 9.153700 14.61610 17.34350 17.17810 15.85170 13.77600 11.64960 9.742600 8.238900 6.748000 5.407300 4.491100 3.840700 3.049200 2.322300 2.084700 2.169600 2.185100 2.261500 3.200700 5.990400 11.31850 18.15370 24.43150 29.40850 33.65890 37.83200 42.39330 47.40620 52.88730 58.55060 64.08490 69.08100 73.23080 76.51070 32.15239 51.02091 -11.76960 31.98877 50.33086 -12.33880 
B03 0.00000 0.00000 0.00000 35.39898 29.07199 35.91893 8.849900 16.32180 31.17500 45.12100 49.04120 49.10210 48.00320 46.28460 44.15340 41.83760 38.88470 35.34140 32.22000 29.57540 25.85150 21.91870 20.42420 21.22660 21.24640 21.57120 25.87390 33.53580 40.48790 44.12100 44.50680 44.39870 46.20700 49.46340 52.77050 54.98840 56.29270 57.04550 57.49370 57.81210 57.88640 57.90170 60.84511 26.79395 -19.09815 60.89944 26.70937 -19.12613 
B04 0.00000 0.00000 0.00000 11.28624 5.910157 18.15419 15.28100 20.58220 28.18370 31.60330 32.27380 31.62460 28.80160 25.21810 21.32520 17.74900 13.85580 9.946600 7.235800 5.272600 3.180200 1.774800 1.481200 1.604800 1.627400 1.714100 2.994000 6.382600 10.20570 12.91170 14.81090 16.67110 19.08040 22.33440 26.43290 31.52470 37.62540 44.67890 52.15150 59.46220 65.59380 70.55110 29.18466 49.82383 -42.84553 29.17602 49.68702 -43.11572 
B05 0.00000 0.00000 0.00000 14.70309 18.07094 43.37141 7.436400 13.60890 25.33250 37.24020 42.18850 45.86300 51.00300 56.64510 58.65700 58.00990 55.06360 50.40100 44.61820 38.32980 32.01590 25.96940 20.72970 16.14430 12.23840 9.611800 8.188500 7.459300 6.867700 6.398700 6.301700 6.608100 7.154500 7.835500 8.483800 8.695900 8.189000 7.563900 7.147300 7.091400 7.563000 8.619500 49.58204 -15.55483 -48.34967 49.88637 -15.34837 -47.52994 
B06 0.00000 0.00000 0.00000 20.92560 29.10435 41.64607 8.128900 14.87980 27.10220 38.00800 41.36280 43.48040 46.29380 49.35820 52.13160 55.20490 57.88570 59.29040 58.07900 54.25900 48.63050 42.40700 36.39260 30.51700 24.66570 20.02990 16.90420 15.03150 13.57300 12.39170 11.89100 11.68600 11.75540 12.20320 13.02430 13.43590 13.07590 12.35650 11.38730 10.57360 10.96330 12.66190 60.87361 -30.87804 -26.71193 61.08666 -30.77448 -26.31268 
B07 0.00000 0.00000 0.00000 1.798224 3.155516 3.504083 1.812200 2.020000 2.363000 2.401500 2.469900 2.633400 2.780800 3.093700 3.649200 4.904900 6.990000 8.771200 9.273000 8.329200 6.340600 4.476400 3.419000 2.749000 2.123500 1.722200 1.543100 1.404100 1.250400 1.137200 1.067600 1.034300 1.023500 1.011900 1.002100 1.014200 0.981300 1.020300 1.018900 1.074800 1.094200 1.157000 20.65626 -25.40571 -6.583163 20.82277 -25.70333 -6.508066 
B08 0.00000 0.00000 0.00000 18.69632 28.90618 31.04039 7.680000 12.17180 19.22670 24.03890 26.11630 28.10380 30.44820 33.56360 37.96780 43.96570 49.18780 52.33720 52.82170 51.25820 48.20060 43.86540 38.76660 32.93840 26.77570 21.73230 17.86260 14.94890 12.41080 10.67730 9.843200 9.442900 9.242000 9.205500 9.491900 9.979600 10.46460 10.72820 10.75070 10.46000 10.58620 11.07640 60.69874 -41.19751 -12.15099 60.86622 -41.28349 -11.86291 
B09 0.00000 0.00000 0.00000 2.897232 2.895569 1.272025 1.281300 1.397600 1.384600 1.462900 1.442900 1.435900 1.468000 1.457200 1.495600 1.555200 1.622800 1.696100 1.783100 1.982100 2.288800 2.646100 2.863000 2.953000 3.031100 3.169100 3.308300 3.396600 3.420600 3.398400 3.353300 3.287100 3.243300 3.214500 3.178900 3.170600 3.107900 3.095900 3.061500 3.046700 3.051500 3.067100 19.62072 1.906787 11.63439 19.58736 1.876248 11.57784 
B10 0.00000 0.00000 0.00000 17.28422 17.88805 14.61438 6.561800 10.12400 14.51670 16.75120 17.17430 17.45840 17.75720 17.96510 17.91560 17.78490 17.63500 17.58690 17.58800 17.64540 17.72140 17.75100 17.78350 17.80860 17.85760 18.05060 18.20000 18.24150 18.18600 18.07960 17.92190 17.75720 17.63030 17.50340 17.35560 17.23080 17.04290 16.93040 16.81490 16.74350 16.61230 16.43950 49.36004 0.198653 0.361548 49.35936 0.228541 0.373193 
C01 0.00000 0.00000 0.00000 0.858195 0.884093 0.735769 0.924700 0.939600 0.882400 0.948800 0.890900 0.911500 0.907500 0.884700 0.899300 0.867800 0.886700 0.877000 0.887200 0.873700 0.890100 0.872600 0.874900 0.879600 0.882300 0.890700 0.881700 0.883200 0.887400 0.896300 0.894300 0.901600 0.894500 0.903500 0.903500 0.907100 0.896400 0.899400 0.893800 0.918900 0.891900 0.893600 7.985978 0.231922 -0.122032 7.984831 0.237636 -0.130743 
C02 0.00000 0.00000 0.00000 4.205645 3.026787 5.575719 4.605300 6.451800 7.911500 8.482100 8.491900 8.270200 7.932500 7.390900 6.827200 6.169400 5.396000 4.503200 3.770000 3.195700 2.494000 1.922200 1.726700 1.806000 1.853000 1.961200 2.460200 3.381500 4.154100 4.638900 5.051900 5.501400 6.130100 6.871000 7.853700 8.962200 10.19280 11.47020 12.77830 13.92380 14.95330 15.58490 20.15086 20.18223 -19.14053 20.16247 20.01459 -19.17557 
C03 0.00000 0.00000 0.00000 14.64076 12.28803 26.51957 7.269400 12.62130 22.96430 31.24440 34.30640 35.75890 36.37060 35.83270 34.05630 31.41760 27.84520 23.14530 18.76920 15.56850 12.73680 10.57780 9.782300 9.606400 9.164200 8.887100 9.643100 11.37570 13.07510 13.32950 12.29230 12.05870 13.95390 17.87090 23.11790 27.97330 30.93830 32.29410 33.65320 35.67090 38.04630 40.82660 41.67028 18.16952 -37.57801 41.75659 18.01832 -37.42634 
C04 0.00000 0.00000 0.00000 2.991118 3.148820 9.973455 3.042300 4.699100 6.777200 8.651400 9.652500 10.47170 11.83450 13.44560 13.93430 13.43560 12.34010 10.70110 8.926200 7.135800 5.336800 3.859700 2.909700 2.272300 1.786700 1.528300 1.402300 1.369200 1.339400 1.311600 1.353400 1.415900 1.533000 1.637100 1.681900 1.655500 1.517300 1.439100 1.449900 1.529400 1.639400 1.781200 20.63031 -0.783656 -35.73994 20.85907 -0.765117 -35.07789 
C05 0.00000 0.00000 0.00000 22.74663 28.18675 44.30149 9.008300 15.39130 29.42630 42.44230 47.18770 49.28610 51.57980 54.43740 56.36610 57.69860 57.87690 56.33370 53.49890 49.63150 44.48690 38.46410 33.03830 27.96700 22.84510 19.10730 17.33590 16.57880 15.70920 14.93300 14.84750 15.83230 17.41250 18.88420 19.73910 19.58290 18.27940 16.94520 16.57460 17.21250 18.22660 19.51350 60.05708 -18.88367 -31.43498 60.25603 -18.80033 -31.02983 
C06 0.00000 0.00000 0.00000 1.938125 2.974912 5.955871 1.821100 2.611600 3.463400 4.249200 4.375000 4.817700 5.506600 6.371700 7.327800 8.898100 10.68350 11.23200 10.30690 8.325700 6.034900 4.133900 2.847200 2.047100 1.517900 1.247200 1.098400 1.020900 0.977800 0.943800 0.929600 0.898800 0.891400 0.851600 0.883100 0.852900 0.848500 0.854300 0.894500 0.918000 1.121500 1.181500 19.94314 -18.97881 -21.30964 20.18890 -19.24251 -20.90403 
C07 0.00000 0.00000 0.00000 26.25546 28.75392 46.07488 9.181300 16.61350 32.14660 47.87270 53.50760 55.40840 57.04760 58.39040 58.46170 57.62460 55.64210 52.46800 48.96470 45.22270 39.75100 33.60570 29.81460 27.62160 24.21200 21.38030 20.81300 21.07330 20.63250 19.98040 20.15370 21.42160 23.29130 25.16410 26.55810 26.60130 25.02520 23.26160 22.46960 22.68900 23.73010 25.69060 60.56384 -5.935400 -32.70214 60.73369 -5.833937 -32.38939 
C08 0.00000 0.00000 0.00000 10.13509 18.20596 19.48738 4.828800 7.527000 10.49460 12.50160 13.59930 14.81810 16.54920 19.00950 22.88650 28.86570 35.12300 40.12770 41.60890 39.63310 35.40350 30.02600 24.48910 19.22930 14.60880 11.26660 8.919100 7.193100 5.775200 4.872000 4.422000 4.204900 4.069800 4.024400 4.113500 4.370000 4.600000 4.766800 4.782300 4.712000 4.648500 4.867600 49.74496 -47.41366 -10.28303 49.94052 -47.60164 -10.02994 
C09 0.00000 0.00000 0.00000 18.62622 28.61132 14.24059 5.012300 6.919600 8.860000 9.678500 10.16460 10.74090 11.63950 13.05420 15.35060 19.14930 24.84390 31.34440 36.75630 39.58530 40.10530 39.26190 37.72660 35.46130 32.34300 28.97250 25.31640 21.34610 17.02240 13.31130 10.93550 9.579700 8.696600 7.920000 7.392200 7.258400 7.499900 7.962800 8.670600 9.346600 9.536100 9.457000 60.43706 -40.43174 20.42580 60.45755 -40.60155 20.33710 
C10 0.00000 0.00000 0.00000 0.956934 0.988472 0.886800 0.905500 1.185700 1.142100 1.191700 1.163200 1.084100 1.124300 1.076200 1.062300 1.049500 1.044500 1.041800 1.012200 1.008500 1.006500 0.992400 0.994500 0.975300 0.985400 0.974400 0.983000 0.978400 0.977900 0.970600 0.969600 0.981000 0.963100 0.991500 0.960000 0.987100 0.971300 0.995700 0.957100 0.991900 0.991800 0.983700 8.895037 0.144154 -1.218013 8.897350 0.162594 -1.217936 
D01 0.00000 0.00000 0.00000 87.41702 90.97975 73.12530 11.81430 19.63530 38.88830 65.99100 83.41900 87.75950 88.63170 89.28560 89.68290 90.01970 90.11600 90.44410 90.60130 90.74540 91.00730 91.04150 91.10660 91.14400 90.92860 91.17420 91.06690 91.08920 90.99060 91.08410 91.05010 90.93860 91.01630 91.17250 91.19900 91.07450 91.02270 90.92110 90.95870 91.02210 90.99780 90.78810 96.40171 -0.563853 1.670768 96.40032 -0.539029 1.549336 
D02 0.00000 0.00000 0.00000 60.50863 63.60515 60.61552 10.45360 18.65500 36.77900 58.85780 68.92320 71.41020 73.48270 75.02210 75.37090 75.10790 74.42250 73.66900 72.92480 72.06590 69.86990 66.29270 64.07130 63.17870 60.77100 58.63350 59.00590 60.22890 60.21200 59.68620 59.97810 61.43630 63.49070 65.51670 66.88000 66.86700 65.33650 63.68920 62.96740 63.34160 64.47480 66.48160 83.75977 -1.924219 -8.477971 83.80209 -1.977124 -8.427125 
D03 0.00000 0.00000 0.00000 70.60321 66.07321 54.21772 10.37750 18.39250 36.52880 57.19800 65.15180 66.32310 66.74670 66.87830 66.59030 66.10510 65.27730 64.33960 63.41880 62.55120 60.69150 57.84860 56.72280 57.98980 58.72170 60.39710 66.33460 74.62230 80.39000 83.35270 84.71200 85.28310 85.73530 86.14640 86.40960 86.50230 86.64400 86.77240 86.92500 87.23790 87.28110 87.23560 85.03375 15.17627 0.305678 85.04029 15.10908 0.241313 
D04 0.00000 0.00000 0.00000 54.30687 64.80126 54.27910 10.17750 18.04680 34.80500 52.24120 58.66480 60.31910 61.74990 63.54450 66.14680 69.53500 72.40620 74.25240 74.73990 75.05080 75.68980 75.60460 74.24620 71.79770 68.49920 65.04890 60.83170 55.97240 50.87850 47.17710 45.09730 44.03300 43.32310 42.76200 42.93150 44.16920 45.89350 47.47170 48.72160 48.99950 48.05220 47.24610 84.38122 -19.75812 -0.884959 84.41612 -19.75029 -0.877399 
D05 0.00000 0.00000 0.00000 68.46298 64.76458 47.13632 9.567700 17.44720 34.55020 51.75280 57.23450 57.53550 57.43480 57.45400 57.33410 57.29340 57.10650 56.98740 56.88950 56.77300 56.69560 56.42880 56.65060 57.76390 59.77670 63.77930 69.19430 74.53610 78.03620 80.00350 81.01250 81.45210 81.97730 82.45930 82.91740 83.18290 83.53950 83.89050 84.23560 84.68240 84.84640 84.92660 84.36228 13.46997 7.074433 84.32880 13.39954 6.941179 
D06 0.00000 0.00000 0.00000 56.93543 63.92964 31.65031 9.168100 15.28940 25.58320 32.33010 33.41320 33.67740 34.07350 35.04930 36.86840 40.01770 44.16670 47.75440 50.25280 53.46440 59.49430 66.60560 70.10740 70.88930 71.03860 71.41960 70.70170 68.33270 63.91730 58.91050 54.88840 52.17400 50.08020 48.15750 46.77200 46.31990 46.77350 47.92610 49.67890 51.34930 52.02140 52.16690 83.92913 -11.25207 26.96181 83.87276 -11.28988 26.80394 
D07 0.00000 0.00000 0.00000 37.92463 30.22247 9.755338 4.952400 7.502700 10.09470 11.33290 11.39170 11.45350 11.53300 11.67490 11.77690 11.80180 11.80710 11.88790 12.21360 13.58030 15.62020 16.85130 17.82380 19.83870 24.47010 32.49200 41.33960 48.05930 51.61950 53.19660 53.74330 53.81130 53.88520 53.89310 53.84260 53.62760 53.45210 53.30040 53.20030 53.15210 53.05110 52.78230 61.84571 30.80094 36.04735 61.70070 30.75696 35.83190 
D08 0.00000 0.00000 0.00000 37.57186 32.59017 17.15066 6.829400 9.964100 13.63180 15.31420 15.65570 16.13920 16.87620 18.20370 20.28200 23.14080 26.49150 29.72620 31.82320 31.94450 29.00050 24.72230 22.95170 23.93540 24.04400 24.53180 29.92980 39.54780 48.13700 53.42690 56.00930 57.10650 57.60440 57.82400 57.83350 57.60030 57.30530 57.04120 57.07520 57.14830 56.99930 56.87390 63.82768 21.11851 19.15108 63.83872 20.64143 19.12484 
D09 0.00000 0.00000 0.00000 9.846655 18.86782 10.54424 4.330400 5.495600 6.636600 7.234900 7.442700 7.827000 8.374800 9.284800 10.93810 14.10740 19.03050 23.96150 28.02790 31.27920 33.43150 33.13120 29.87790 24.78860 19.36760 14.90750 11.48120 8.745500 6.375100 4.708000 3.746800 3.261400 2.918900 2.686200 2.524600 2.450500 2.467800 2.544900 2.742000 2.882700 3.019700 3.070300 50.53220 -53.06699 13.96333 50.58786 -53.07266 13.90671 
D10 0.00000 0.00000 0.00000 87.30984 90.87382 72.96879 12.13230 19.59230 38.60940 65.80330 83.13370 87.55980 88.45490 89.02480 89.52870 89.81110 89.97380 90.31170 90.48780 90.66190 90.87360 90.91730 91.01760 91.01960 90.85040 91.06360 90.95260 90.99160 90.90840 90.98760 90.95440 90.86510 90.91890 91.05670 91.11660 90.99100 90.95990 90.86670 90.87080 90.94490 91.01870 90.70680 96.35807 -0.573597 1.732697 96.35658 -0.549341 1.609019 
E01 0.00000 0.00000 0.00000 17.45911 18.04705 14.70393 6.618800 10.26150 14.66160 16.86390 17.28140 17.54420 17.88820 18.05920 18.02770 17.88630 17.74970 17.70250 17.70120 17.76760 17.84170 17.87690 17.91100 17.94500 18.00360 18.22870 18.37290 18.44610 18.37510 18.28050 18.14730 17.97620 17.86690 17.74950 17.63150 17.47920 17.34450 17.22520 17.09670 17.03590 16.91540 16.86270 49.55312 0.314091 0.465470 49.55159 0.341201 0.474802 
E02 0.00000 0.00000 0.00000 9.106688 7.212194 2.403338 1.835200 2.737400 2.847200 2.809800 2.882000 2.785700 2.813100 2.854500 2.801900 2.844100 2.857700 2.914900 3.200700 3.966600 5.091900 5.616000 5.817200 5.866000 5.750500 5.767600 6.125300 7.167100 9.161500 12.87690 16.35950 17.56120 17.85420 18.04410 18.11550 18.26950 18.36070 18.54830 18.67810 18.80590 19.02090 18.94240 32.28517 19.57652 21.70896 32.21373 19.29967 21.62787 
E03 0.00000 0.00000 0.00000 40.29318 30.01347 2.964544 2.613200 2.716600 2.741300 2.729600 2.691200 2.669900 2.632700 2.731800 3.058200 3.808100 4.883000 5.567400 5.911200 6.645000 8.846900 12.24330 14.67740 17.22750 22.62360 32.63400 44.81810 54.87790 59.78280 60.90860 60.62640 60.04450 59.49820 58.96330 58.62340 58.63980 59.05590 59.62570 60.40710 60.97930 61.04530 60.95460 61.66585 39.04926 67.90602 61.50014 38.95509 67.56810 
E04 0.00000 0.00000 0.00000 4.567019 3.113091 19.46803 3.991900 6.041500 9.828200 13.84090 16.66100 19.77380 24.22350 29.40410 30.57630 26.93280 20.37900 13.78460 8.644400 5.407200 3.630700 2.652600 2.120900 1.782000 1.560300 1.436100 1.361400 1.320000 1.303300 1.300800 1.330400 1.369600 1.456800 1.530100 1.613400 1.708400 1.700500 1.727400 1.797200 1.973100 2.211700 2.533000 20.49124 23.61834 -60.67957 20.83194 23.50698 -59.38763 
E05 0.00000 0.00000 0.00000 87.31819 90.88254 72.96451 12.00190 19.50440 38.70410 65.84050 83.17570 87.49540 88.46600 89.04870 89.49590 89.81970 89.95010 90.29840 90.48430 90.62890 90.91930 90.91190 91.02390 91.06350 90.82860 91.07640 90.97390 91.00470 90.92030 90.98450 90.98020 90.84610 90.93480 91.10560 91.13360 90.98720 90.93060 90.89660 90.92770 91.04790 90.99820 90.76890 96.36166 -0.573660 1.742636 96.36033 -0.550439 1.620648 
E06 0.00000 0.00000 0.00000 0.964384 0.993802 0.892173 1.216200 1.223700 1.233700 1.129100 1.148500 1.120100 1.116300 1.091200 1.082400 1.044900 1.045600 1.029400 1.024100 1.009000 1.000300 1.003000 0.991600 0.989300 0.987200 0.983000 0.984500 0.983700 0.985700 0.980400 0.990100 0.976500 0.985400 0.988400 0.986400 0.996200 0.986200 0.988300 0.977000 0.984700 0.977500 0.975600 8.939704 0.229756 -1.229972 8.941953 0.247966 -1.225699 
E07 0.00000 0.00000 0.00000 56.45253 50.33430 26.01365 8.004900 14.65290 25.09100 31.70000 32.00860 31.13260 30.73810 30.55210 30.75560 32.12640 33.43440 32.95000 32.36450 33.70610 34.91650 34.24850 34.68700 40.49350 51.94490 59.84420 62.32830 64.54690 67.05080 69.86570 71.31880 71.54220 71.68610 71.84090 71.87480 71.74100 71.65320 71.56040 71.48010 71.56810 71.48380 71.31690 76.27400 20.55485 22.96043 76.10539 20.56343 22.59688 
E08 0.00000 0.00000 0.00000 54.17600 45.09126 22.16153 8.246100 14.36170 23.43680 28.27970 28.04850 27.20990 26.83100 26.52780 26.49490 27.25300 27.56370 26.27790 25.29660 26.21890 26.28480 24.55780 24.70240 30.42690 43.20270 55.55060 62.23760 66.04540 68.31280 69.56350 70.15570 70.48290 70.83650 71.20260 71.46330 71.55930 71.66130 71.69010 71.82390 72.02880 72.13330 72.08670 72.95195 29.17403 24.31428 72.75196 29.24592 23.92251 
E09 0.00000 0.00000 0.00000 1.792732 3.041966 1.703978 0.692600 1.043100 1.242100 1.178500 1.302900 1.390500 1.413400 1.613300 1.871500 2.303700 2.957100 3.464600 3.838000 4.436200 5.032600 5.039600 4.599300 3.939100 3.226100 2.595300 2.048100 1.644300 1.298600 1.083100 0.990800 0.895400 0.898500 0.866600 0.849600 0.897200 0.859500 0.937600 0.959300 0.968300 1.054700 0.907900 20.21119 -23.62244 7.556982 20.22062 -23.63612 7.540562 
E10 0.00000 0.00000 0.00000 17.45265 18.04448 14.68620 6.523600 10.23080 14.60170 16.82340 17.29200 17.48400 17.84160 18.06300 18.00490 17.86130 17.74250 17.69090 17.68970 17.75870 17.83380 17.88260 17.91780 17.93910 18.01230 18.22860 18.37070 18.44240 18.36530 18.27600 18.14840 17.97120 17.85580 17.73260 17.60250 17.47150 17.31100 17.20440 17.09240 17.01950 16.92660 16.78090 49.55001 0.292597 0.505367 49.54824 0.318258 0.519293 
F01 0.00000 0.00000 0.00000 0.858932 0.886534 0.737987 0.669100 0.930700 0.913300 0.905200 0.924100 0.909400 0.901600 0.897300 0.884600 0.885700 0.885300 0.892800 0.878800 0.888500 0.883300 0.879300 0.885300 0.880800 0.885300 0.887900 0.885100 0.890000 0.890700 0.893400 0.892700 0.891900 0.890900 0.900600 0.899100 0.912500 0.891400 0.894200 0.927600 0.936500 0.909500 0.930200 8.008026 0.166519 -0.125656 8.007640 0.166956 -0.129621 
F02 0.00000 0.00000 0.00000 36.62227 32.02811 16.55848 7.069400 10.61200 14.52060 16.01940 16.35800 16.52270 16.93010 17.78640 19.19260 21.34210 24.32040 28.00670 31.05360 31.73340 29.19060 25.59300 24.01560 24.13450 23.34280 23.23570 28.74170 38.76760 46.59200 50.84610 53.10740 54.67910 56.35810 58.35900 60.69220 63.36520 66.43600 69.74580 73.04510 75.94290 78.12530 79.58190 63.36611 20.00505 19.73492 63.35293 19.37971 19.63727 
